lib/logo_tmp/nrk-logo-nrk-p3-urort-with-bg.svg

<svg width="133" height="28" viewBox="0 0 133 28" fill="none" xmlns="http://www.w3.org/2000/svg">
<rect width="133" height="28" fill="#FFE100"/>
<path d="M89.3865 15.4631C89.3949 16.0512 89.3253 16.6379 89.1795 17.2078C89.0631 17.6711 88.8442 18.1023 88.5387 18.4695C88.2327 18.816 87.8422 19.0775 87.4052 19.2285C86.8625 19.4114 86.2921 19.4981 85.7196 19.4848C85.0525 19.4999 84.389 19.3827 83.7676 19.1398C83.2215 18.9153 82.7739 18.5027 82.5058 17.9767C82.1857 17.2828 82.0369 16.5222 82.0721 15.7588V7.00598H80.0021V16.0952C79.9799 16.9129 80.1312 17.726 80.446 18.481C80.7147 19.1037 81.1349 19.6492 81.6683 20.068C82.2052 20.4777 82.8185 20.776 83.4722 20.9453C84.1798 21.1322 84.9089 21.2249 85.6407 21.221C86.7401 21.2639 87.8324 21.0264 88.8147 20.531C89.6174 20.0972 90.2625 19.4211 90.658 18.599C91.077 17.6845 91.2825 16.6868 91.259 15.6813V7.00697H89.3861L89.3865 15.4631Z" fill="black"/>
<path d="M98.317 10.8798C97.9482 10.9784 97.5961 11.1313 97.2722 11.3333C96.9358 11.5431 96.6249 11.7912 96.3456 12.0726C96.2989 12.1189 96.2536 12.1711 96.2076 12.2197V10.7514L94.1967 11.0471V21.0028H96.2076V13.5551C96.357 13.4506 96.5116 13.3537 96.6709 13.2649C96.8682 13.1565 97.0723 13.061 97.282 12.9791C97.4855 12.9002 97.6925 12.8312 97.903 12.7721C98.1194 12.7119 98.3403 12.669 98.5635 12.6439C98.8024 12.6177 99.043 12.6111 99.283 12.6242L99.5196 10.7714C99.1155 10.7422 98.7094 10.7788 98.317 10.8798Z" fill="black"/>
<path d="M109.81 10.4951L108.706 11.6602C108.561 11.5521 108.41 11.4527 108.253 11.3625C107.429 10.9238 106.505 10.7065 105.572 10.732C104.634 10.7107 103.706 10.9348 102.881 11.3822C102.119 11.8085 101.497 12.445 101.087 13.2157C100.642 14.0803 100.421 15.0432 100.446 16.0154C100.421 16.9809 100.631 17.9381 101.057 18.8046C101.17 19.0192 101.3 19.2245 101.446 19.4184L100.348 20.5891L101.254 21.4168L102.306 20.2806C102.457 20.3939 102.616 20.4969 102.782 20.5891C103.586 21.0114 104.485 21.2217 105.394 21.1999C106.338 21.2198 107.272 20.9957 108.105 20.5494C108.883 20.1196 109.522 19.4768 109.948 18.6965C110.412 17.8236 110.643 16.8457 110.618 15.8574C110.641 14.9161 110.427 13.9842 109.997 13.1466C109.88 12.9321 109.746 12.7272 109.597 12.5339L110.736 11.3231L109.81 10.4951ZM102.93 13.906C103.151 13.4123 103.52 12.9991 103.985 12.7231C104.476 12.4508 105.03 12.3146 105.592 12.3288C106.038 12.3186 106.481 12.4026 106.893 12.5753C107.114 12.6749 107.319 12.8089 107.499 12.9722L102.912 17.9257C102.657 17.2808 102.535 16.5905 102.556 15.8971C102.532 15.2139 102.66 14.534 102.93 13.906ZM108.135 17.9668C107.909 18.4766 107.535 18.9061 107.06 19.1989C106.585 19.4744 106.043 19.6142 105.493 19.6034C104.948 19.6161 104.411 19.4724 103.945 19.1894C103.814 19.105 103.692 19.008 103.579 18.8999L108.168 13.9454C108.236 14.1025 108.294 14.2638 108.342 14.4284C108.472 14.9069 108.535 15.401 108.529 15.8968C108.552 16.6079 108.418 17.3153 108.135 17.9681V17.9668Z" fill="black"/>
<path d="M117.262 10.8798C116.893 10.9785 116.541 11.1313 116.217 11.3333C115.881 11.5431 115.57 11.7912 115.291 12.0726C115.244 12.1189 115.199 12.1711 115.153 12.2197V10.7514L113.142 11.0471V21.0028H115.153V13.5551C115.302 13.4506 115.457 13.3537 115.616 13.2649C115.813 13.1565 116.017 13.061 116.227 12.9791C116.431 12.9002 116.638 12.8312 116.848 12.7721C117.065 12.7119 117.285 12.6691 117.509 12.6439C117.747 12.6177 117.988 12.6111 118.228 12.6242L118.465 10.7714C118.061 10.7422 117.654 10.7788 117.262 10.8798Z" fill="black"/>
<path d="M125.818 19.357C125.726 19.3764 125.624 19.3964 125.513 19.4158L125.178 19.4749C125.07 19.4941 124.961 19.5073 124.852 19.5144C124.747 19.5213 124.648 19.5242 124.556 19.5242C124.254 19.5327 123.954 19.472 123.679 19.3468C123.442 19.2347 123.246 19.0522 123.117 18.8244C122.979 18.5673 122.911 18.2785 122.92 17.9868V12.5256H125.7L125.917 10.9485H122.92V7.83333L120.909 8.54304V10.9485H119.391L119.174 12.5256H120.909V18.4005C120.9 18.7924 120.96 19.1827 121.087 19.5538C121.188 19.8474 121.346 20.1185 121.55 20.3522C121.738 20.5605 121.966 20.7282 122.221 20.8451C122.481 20.9648 122.756 21.0509 123.038 21.1014C123.318 21.1529 123.602 21.1793 123.886 21.1802C124.096 21.1802 124.303 21.1736 124.507 21.1608C124.712 21.148 124.898 21.128 125.069 21.1014C125.24 21.0747 125.401 21.0452 125.552 21.013C125.703 20.9808 125.831 20.9505 125.936 20.9239L126.055 19.288C125.978 19.3172 125.899 19.3403 125.818 19.357Z" fill="black"/>
<path d="M60.7219 7.00586H56.4039C56.4039 7.00586 58.8576 11.0338 58.8852 11.0845C58.9777 11.201 59.0294 11.3447 59.0323 11.4934C59.0352 11.6421 58.9892 11.7876 58.9014 11.9076L56.4039 16.0014H60.7226C60.7226 16.0014 62.8052 12.596 63.09 12.1232C63.2251 11.9421 63.2972 11.7217 63.2951 11.4958C63.293 11.2698 63.2169 11.0508 63.0785 10.8722C62.7714 10.3491 62.7707 10.3494 60.7219 7.00586Z" fill="black"/>
<path d="M55.8459 7.00591H52V20.998H55.8459V7.00591Z" fill="black"/>
<path d="M74.2476 9.32389C74.1024 9.07632 72.8171 7.00586 72.8171 7.00586H63.574L65.5931 10.3925H70.4616L68.4533 13.6847L70.692 17.446L68.5314 20.997H72.4774C73.1118 19.9593 74.0603 18.354 74.2585 18.0251C74.3944 17.8434 74.4668 17.622 74.4648 17.395C74.4627 17.1681 74.3862 16.9481 74.2469 16.7688C74.0494 16.4317 72.9926 14.7557 72.3612 13.7239C72.3612 13.7239 74.0603 10.9084 74.2585 10.5795C74.3943 10.3979 74.4668 10.1767 74.4648 9.94988C74.4629 9.72307 74.3865 9.50316 74.2476 9.32389Z" fill="black"/>
<path d="M65.3567 14.1394C64.7483 15.133 63.731 16.7981 63.5404 17.1228C63.4063 17.2954 63.3325 17.5073 63.3305 17.726C63.3285 17.9446 63.3983 18.1578 63.5292 18.333C63.7201 18.6497 64.7453 20.328 65.3567 21.3289C65.9677 20.329 66.9933 18.6507 67.1839 18.333C67.3148 18.1578 67.3846 17.9446 67.3826 17.726C67.3806 17.5074 67.307 17.2955 67.173 17.1228C66.9824 16.7981 65.9648 15.133 65.3567 14.1394Z" fill="black"/>
<path d="M6.66663 21.0001V7.00135H11.26V21.0001H6.66663ZM17.5094 9.22932L20.151 21.0001H15.124L11.9697 7.00135H14.7892C15.4357 6.99296 16.063 7.22087 16.5535 7.6422C17.0449 8.04586 17.3824 8.60623 17.5094 9.22932ZM20.8411 21.0001V7.00135H25.4345V21.0001H20.8411ZM28.9038 12.3249C28.4089 12.3297 27.9218 12.2002 27.4946 11.9502C27.073 11.7066 26.7229 11.3564 26.4793 10.9348C26.229 10.5075 26.0995 10.0203 26.1044 9.52512C26.0988 9.03295 26.2284 8.54869 26.4793 8.12525C26.7255 7.70824 27.0752 7.36186 27.4946 7.11969C27.922 6.87 28.4089 6.74052 28.9038 6.74503C29.3959 6.73973 29.8799 6.86933 30.3035 7.11969C30.7187 7.36398 31.0647 7.71007 31.309 8.12525C31.5596 8.54881 31.6892 9.03299 31.6838 9.52512C31.6884 10.0203 31.5589 10.5073 31.309 10.9348C31.0673 11.3545 30.7209 11.7044 30.3035 11.9502C29.8799 12.2011 29.3955 12.3307 28.9032 12.3249H28.9038ZM32.3935 21.0001V7.00135H36.9873V21.0001H32.3935ZM42.8027 14.6514C42.8156 14.6649 42.9141 14.8259 43.0983 15.1344C43.2826 15.4429 43.5224 15.8372 43.8179 16.3174C44.1136 16.7974 44.4257 17.3067 44.754 17.8454C45.0824 18.3841 45.3913 18.8935 45.6809 19.3735C45.9694 19.8535 46.298 20.3957 46.6666 21.0001H41.6198C41.3041 20.4875 41.0181 20.0241 40.7618 19.6101C40.5056 19.196 40.2331 18.7491 39.9444 18.2693C39.6551 17.79 39.369 17.3234 39.0862 16.8695C38.8034 16.4155 38.5604 16.018 38.3571 15.6766C38.153 15.3351 38.0116 15.1051 37.9329 14.9865C37.7379 14.6924 37.6225 14.3528 37.5981 14.0007C37.6176 13.6628 37.7263 13.3362 37.9132 13.054C37.992 12.9226 38.1366 12.6892 38.3469 12.3541C38.5572 12.0189 38.8036 11.6213 39.0862 11.1613C39.3688 10.7012 39.6549 10.2313 39.9444 9.75152C40.234 9.27175 40.5064 8.82152 40.7618 8.4009C41.0186 7.98072 41.3046 7.5141 41.6198 7.00103H46.6666L42.7629 13.3695C42.6421 13.5586 42.574 13.7765 42.5657 14.0007C42.5787 14.2361 42.6609 14.4625 42.8019 14.6514H42.8027Z" fill="black"/>
</svg>

<svg xmlns="http://www.w3.org/2000/svg" viewBox="0 0 133 28"><path fill="#FFE100" d="M0 0h133v28H0z"/><path fill="#000" d="M89.386 15.463a6.656 6.656 0 0 1-.206 1.745 3.187 3.187 0 0 1-.641 1.262 2.68 2.68 0 0 1-1.134.759 4.92 4.92 0 0 1-1.685.256 5.048 5.048 0 0 1-1.952-.345 2.47 2.47 0 0 1-1.262-1.163 4.77 4.77 0 0 1-.434-2.218V7.006h-2.07v9.09c-.022.817.13 1.63.444 2.385a4.066 4.066 0 0 0 1.222 1.587c.537.41 1.15.708 1.804.877.708.187 1.437.28 2.169.276a6.487 6.487 0 0 0 3.174-.69 4.33 4.33 0 0 0 1.843-1.932 6.633 6.633 0 0 0 .601-2.918V7.007h-1.873v8.456ZM98.317 10.88c-.369.098-.72.251-1.045.453-.336.21-.647.458-.926.74-.047.046-.092.098-.138.147V10.75l-2.011.296v9.956h2.01v-7.448a5.19 5.19 0 0 1 1.074-.576c.204-.079.411-.148.622-.207a4.227 4.227 0 0 1 1.38-.148l.237-1.853c-.404-.029-.81.008-1.203.109ZM109.81 10.495l-1.104 1.165a4.55 4.55 0 0 0-.453-.297 5.392 5.392 0 0 0-2.681-.631 5.39 5.39 0 0 0-2.691.65 4.546 4.546 0 0 0-1.794 1.834 5.793 5.793 0 0 0-.641 2.8 5.972 5.972 0 0 0 .611 2.789c.113.214.243.42.389.613l-1.098 1.171.906.828 1.052-1.136c.151.113.31.216.476.308a5.342 5.342 0 0 0 2.612.61 5.496 5.496 0 0 0 2.711-.65 4.676 4.676 0 0 0 1.843-1.852 5.74 5.74 0 0 0 .67-2.84 5.635 5.635 0 0 0-.621-2.71 4.657 4.657 0 0 0-.4-.613l1.139-1.21-.926-.829Zm-6.88 3.411c.221-.494.59-.907 1.055-1.183a3.147 3.147 0 0 1 1.607-.394c.446-.01.889.074 1.301.246.221.1.426.234.606.397l-4.587 4.954a5.098 5.098 0 0 1-.356-2.029 4.63 4.63 0 0 1 .374-1.991Zm5.205 4.06c-.226.51-.6.94-1.075 1.233a3.005 3.005 0 0 1-1.567.404 2.854 2.854 0 0 1-1.548-.414 2.445 2.445 0 0 1-.366-.29l4.589-4.954c.068.157.126.319.174.483.13.479.193.973.187 1.469a4.815 4.815 0 0 1-.394 2.071v-.001ZM117.262 10.88a3.86 3.86 0 0 0-1.045.453c-.336.21-.647.458-.926.74-.047.046-.092.098-.138.147V10.75l-2.011.296v9.956h2.011v-7.448a5.145 5.145 0 0 1 1.074-.576 6.91 6.91 0 0 1 .621-.207 4.24 4.24 0 0 1 1.38-.148l.237-1.853a3.744 3.744 0 0 0-1.203.109ZM125.818 19.357c-.092.02-.194.04-.305.059l-.335.059c-.108.02-.217.032-.326.04-.105.006-.204.01-.296.01a1.982 1.982 0 0 1-.877-.178 1.27 1.27 0 0 1-.562-.523 1.663 1.663 0 0 1-.197-.837v-5.461h2.78l.217-1.578h-2.997V7.833l-2.011.71v2.405h-1.518l-.217 1.578h1.735V18.4c-.009.391.051.782.178 1.153.101.293.259.565.463.798.188.209.416.376.671.493.26.12.535.206.817.256.28.052.564.078.848.08.21 0 .417-.007.621-.02.205-.013.391-.033.562-.06a8.914 8.914 0 0 0 .867-.177l.119-1.636a1.55 1.55 0 0 1-.237.069ZM60.722 7.006h-4.318s2.454 4.028 2.481 4.079a.679.679 0 0 1 .016.823L56.404 16h4.319s2.082-3.405 2.367-3.878a1.033 1.033 0 0 0-.012-1.25c-.307-.524-.307-.524-2.356-3.867ZM55.846 7.006H52v13.992h3.846V7.006ZM74.248 9.324a381.01 381.01 0 0 0-1.43-2.318h-9.244l2.02 3.386h4.868l-2.009 3.293 2.239 3.761-2.16 3.551h3.945c.635-1.038 1.583-2.643 1.781-2.972a1.037 1.037 0 0 0-.011-1.256c-.198-.337-1.254-2.013-1.886-3.045 0 0 1.7-2.816 1.897-3.145a1.036 1.036 0 0 0-.01-1.255Z"/><path fill="#000" d="M65.357 14.14c-.609.993-1.626 2.658-1.817 2.983a.998.998 0 0 0-.01 1.21c.19.317 1.215 1.995 1.827 2.996.61-1 1.636-2.678 1.827-2.996a.999.999 0 0 0-.011-1.21c-.19-.325-1.208-1.99-1.816-2.984ZM6.667 21V7.001h4.593v14H6.667ZM17.509 9.23 20.151 21h-5.027L11.97 7.001h2.82a2.655 2.655 0 0 1 1.764.641c.49.404.828.964.955 1.587ZM20.841 21V7.001h4.593v14h-4.593Zm8.063-8.675a2.738 2.738 0 0 1-1.41-.375 2.777 2.777 0 0 1-1.015-1.015 2.735 2.735 0 0 1-.375-1.41 2.686 2.686 0 0 1 .375-1.4 2.812 2.812 0 0 1 3.825-1.005c.415.244.76.59 1.005 1.005.25.424.38.908.375 1.4.004.495-.125.982-.375 1.41a2.8 2.8 0 0 1-1.006 1.015c-.423.251-.908.38-1.4.375ZM32.394 21V7.001h4.593v14h-4.593Zm10.409-6.349c.013.014.111.175.295.483.185.309.424.703.72 1.183a373.133 373.133 0 0 1 1.863 3.056c.288.48.617 1.023.986 1.627H41.62a712.71 712.71 0 0 0-.858-1.39 127.3 127.3 0 0 1-.818-1.34c-.289-.48-.575-.947-.858-1.4a71.117 71.117 0 0 1-.729-1.193 20.869 20.869 0 0 0-.424-.69 2.039 2.039 0 0 1-.335-.986c.02-.338.128-.665.315-.947.079-.131.224-.365.434-.7a209.23 209.23 0 0 0 1.598-2.603c.289-.48.561-.93.817-1.35L41.62 7h5.047l-3.904 6.369c-.12.189-.189.407-.197.63.013.236.095.463.236.651Z"/></svg>
